src/svg/original/mac-os.svg

<svg class="icon icon--mac-os" width="100" height="100" xmlns="http://www.w3.org/2000/svg"><g fill="currentColor" fill-rule="nonzero"><path d="M32.662.942c-4.3 1.087-9.249 4.565-15.358 10.725-3.516 3.587-3.686 3.804-3.993 5.724-.649 3.696-3.072 6.268-6.45 6.848-1.57.254-2.083.58-3.858 2.428-2.286 2.391-3.14 4.058-2.832 5.58.136.615 1.433 2.282 3.378 4.311 3.004 3.116 3.277 3.297 4.642 3.297 1.331 0 1.638-.217 4.096-2.754 2.252-2.318 2.73-3.007 2.9-4.275.683-4.456 4.54-7.536 8.26-6.594.649.181 3.857 3.406 10 10.036l9.044 9.783 3.311-3.551 3.345-3.55-8.806-9.059c-4.812-4.963-9.078-9.492-9.42-10.108-1.604-2.537-.307-6.74 3.038-9.928 4.13-3.913 8.532-5.217 12.526-3.804l1.98.724.716-.833.682-.797-1.16-.942C46.246 2.21 40.205.326 36.451.399c-.99 0-2.697.253-3.789.543z"/><path d="M77.85 1.848c-4.471.906-8.498 4.203-10.546 8.623-1.229 2.609-1.263 2.862-1.263 6.522 0 2.101.068 4.203.17 4.637.137.689-3.242 4.457-21.126 23.442l-21.262 22.61-1.23-.363c-.682-.218-2.661-.29-4.368-.218-2.764.11-3.413.29-5.665 1.486-5.495 2.862-8.942 9.348-8.26 15.616l.205 2.101L8.84 81.74l4.334-4.601 4.403.905c2.423.508 4.505 1.051 4.607 1.196.137.181.649 2.391 1.16 5l.922 4.674-4.334 4.601-4.3 4.566 1.842.217c6.007.761 12.116-2.862 14.88-8.768 1.23-2.609 1.264-2.862 1.264-6.522 0-2.101-.069-4.203-.17-4.637-.137-.689 3.207-4.42 21.125-23.442l21.263-22.61 1.229.363c.682.218 2.662.29 4.368.218 2.765-.11 3.413-.29 5.666-1.486 5.529-2.899 8.942-9.42 8.225-15.76l-.205-1.957-4.3 4.565-4.334 4.601-4.403-.978c-2.457-.543-4.54-1.087-4.71-1.232-.137-.145-.648-2.355-1.092-4.927l-.853-4.674 4.3-4.565 4.3-4.566-1.638-.253c-1.911-.254-2.56-.254-4.54.18z"/><path d="M56.826 54.348l-4.71 5L69.283 77.97c21.229 23.007 19.932 21.667 20.888 21.667 1.024 0 9.488-8.913 9.488-10 .034-.652-7.202-8.37-29.045-30.942l-9.044-9.384-4.744 5.036z"/></g></svg>

<?xml version="1.0" encoding="UTF-8"?>
<svg width="100px" height="100px" viewBox="0 0 100 100" version="1.1" xmlns="http://www.w3.org/2000/svg" xmlns:xlink="http://www.w3.org/1999/xlink">
    <title>mac-os copy</title>
    <defs>
        <filter id="filter-1">
            <feColorMatrix in="SourceGraphic" type="matrix" values="0 0 0 0 1.000000 0 0 0 0 1.000000 0 0 0 0 1.000000 0 0 0 1.000000 0"></feColorMatrix>
        </filter>
    </defs>
    <g id="Page-1" stroke="none" stroke-width="1" fill="none" fill-rule="evenodd">
        <g id="All-icons-Copy" transform="translate(-327.000000, -193.000000)">
            <g id="mac-os-copy" transform="translate(327.000000, 193.000000)" filter="url(#filter-1)">
                <g id="mac-os" fill="#000000" fill-rule="nonzero">
                    <path d="M32.662,0.942 C28.362,2.029 23.413,5.507 17.304,11.667 C13.788,15.254 13.618,15.471 13.311,17.391 C12.662,21.087 10.239,23.659 6.861,24.239 C5.291,24.493 4.778,24.819 3.003,26.667 C0.717,29.058 -0.137,30.725 0.171,32.247 C0.307,32.862 1.604,34.529 3.549,36.558 C6.553,39.674 6.826,39.855 8.191,39.855 C9.522,39.855 9.829,39.638 12.287,37.101 C14.539,34.783 15.017,34.094 15.187,32.826 C15.87,28.37 19.727,25.29 23.447,26.232 C24.096,26.413 27.304,29.638 33.447,36.268 L42.491,46.051 L45.802,42.5 L49.147,38.95 L40.341,29.891 C35.529,24.928 31.263,20.399 30.921,19.783 C29.317,17.246 30.614,13.043 33.959,9.855 C38.089,5.942 42.491,4.638 46.485,6.051 L48.465,6.775 L49.181,5.942 L49.863,5.145 L48.703,4.203 C46.246,2.21 40.205,0.326 36.451,0.399 C35.461,0.399 33.754,0.652 32.662,0.942 Z" id="Path"></path>
                    <path d="M77.85,1.848 C73.379,2.754 69.352,6.051 67.304,10.471 C66.075,13.08 66.041,13.333 66.041,16.993 C66.041,19.094 66.109,21.196 66.211,21.63 C66.348,22.319 62.969,26.087 45.085,45.072 L23.823,67.682 L22.593,67.319 C21.911,67.101 19.932,67.029 18.225,67.101 C15.461,67.211 14.812,67.391 12.56,68.587 C7.065,71.449 3.618,77.935 4.3,84.203 L4.505,86.304 L8.84,81.74 L13.174,77.139 L17.577,78.044 C20,78.552 22.082,79.095 22.184,79.24 C22.321,79.421 22.833,81.631 23.344,84.24 L24.266,88.914 L19.932,93.515 L15.632,98.081 L17.474,98.298 C23.481,99.059 29.59,95.436 32.354,89.53 C33.584,86.921 33.618,86.668 33.618,83.008 C33.618,80.907 33.549,78.805 33.448,78.371 C33.311,77.682 36.655,73.951 54.573,54.929 L75.836,32.319 L77.065,32.682 C77.747,32.9 79.727,32.972 81.433,32.9 C84.198,32.79 84.846,32.61 87.099,31.414 C92.628,28.515 96.041,21.994 95.324,15.654 L95.119,13.697 L90.819,18.262 L86.485,22.863 L82.082,21.885 C79.625,21.342 77.542,20.798 77.372,20.653 C77.235,20.508 76.724,18.298 76.28,15.726 L75.427,11.052 L79.727,6.487 L84.027,1.921 L82.389,1.668 C80.478,1.414 79.829,1.414 77.849,1.848 L77.85,1.848 Z" id="Path"></path>
                    <path d="M56.826,54.348 L52.116,59.348 L69.283,77.97 C90.512,100.977 89.215,99.637 90.171,99.637 C91.195,99.637 99.6591192,90.724 99.6591192,89.637 C99.693,88.985 92.457,81.267 70.614,58.695 L61.57,49.311 L56.826,54.347 L56.826,54.348 Z" id="Path"></path>
                </g>
            </g>
        </g>
    </g>
</svg>
